X: 146
T: Finnish Polka
T:Ievan Polkka
M: 2/4
L: 1/8
R: polka
K:Bmin
"Bm"B>B Bc|dB Bd|"A"cA Ac|"Bm"d/c/B/A/ BF|
"Bm"B>B Bc|dB Bd|"A"ef/e/ dc|"Bm"BA B2:|
|:"D"f>d df|"A"ec cd|ef/e/ dc|"Bm"Bc de|
"D"f>d df|"A"ec cd|ef/e/ dc|"Bm"BA B2:|


